projects/flag-game/flags/Malawi.svg

<svg viewBox="0 0 1000 667" xmlns="http://www.w3.org/2000/svg" xmlns:xlink="http://www.w3.org/1999/xlink"><clipPath id="a"><path d="m0 0h1000v666.71875h-1000zm0 0"/></clipPath><clipPath id="b"><path d="m0 444h1000v222.71875h-1000zm0 0"/></clipPath><g clip-path="url(#a)"><path d="m0 666.667969v-666.667969h1000v666.667969zm0 0" fill-rule="evenodd"/></g><g fill-rule="evenodd"><path d="m643.332031 253.332031c0 79.160157-64.171875 143.335938-143.332031 143.335938s-143.332031-64.175781-143.332031-143.335938c0-79.164062 64.171875-143.332031 143.332031-143.332031s143.332031 64.167969 143.332031 143.332031zm0 0" fill="#ce1126"/><path d="m0 222.222656h1000v222.222656h-1000zm0 0" fill="#ce1126"/><path d="m500 26.664062c-4.890625 0-6.667969 7.335938-6.667969 14.449219 0 17.773438 2.226563 26.664063 6.667969 52.21875 4.535156-25.554687 6.667969-34.667969 6.667969-52.21875 0-7.335937-2.226563-14.449219-6.667969-14.449219zm0 0" fill="#ce1126"/><path d="m519.753906 27.527344c-4.867187-.421875-7.28125 6.726562-7.898437 13.808594-1.546875 17.714843-.109375 26.761718 2.085937 52.605468 6.746094-25.0625 9.664063-33.953125 11.195313-51.4375.640625-7.308594-.957031-14.585937-5.382813-14.976562zm0 0" fill="#ce1126"/><path d="m539.359375 30.109375c-4.816406-.851563-7.839844 6.066406-9.074219 13.066406-3.089844 17.511719-2.441406 26.648438-2.5 52.585938 8.902344-24.378907 12.585938-32.980469 15.632813-50.269531 1.269531-7.222657.320312-14.613282-4.058594-15.382813zm0 0" fill="#ce1126"/><path d="m558.664062 34.390625c-4.71875-1.261719-8.339843 5.355469-10.179687 12.222656-4.597656 17.179688-4.75 26.335938-7.074219 52.171875 10.992188-23.515625 15.414063-31.761718 19.957032-48.714844 1.898437-7.085937 1.59375-14.527343-2.703126-15.679687zm0 0" fill="#ce1126"/><path d="m577.523438 40.335938c-4.589844-1.667969-8.773438 4.613281-11.203126 11.292968-6.082031 16.707032-7.03125 25.816406-11.59375 51.355469 13-22.464844 18.121094-30.296875 24.121094-46.792969 2.511719-6.890625 2.851563-14.335937-1.324218-15.855468zm0 0" fill="#ce1126"/><path d="m595.796875 47.90625c-4.433594-2.066406-9.144531 3.824219-12.148437 10.269531-7.515626 16.113281-9.257813 25.109375-16.027344 50.144531 14.910156-21.242187 20.691406-28.59375 28.109375-44.507812 3.097656-6.644531 4.089843-14.027344.066406-15.90625zm0 0" fill="#ce1126"/><path d="m613.335938 57.035156c-4.238282-2.445312-9.441407 3.019532-13 9.175782-8.886719 15.398437-11.410157 24.203124-20.332032 48.558593 16.699219-19.863281 23.105469-26.6875 31.882813-41.890625 3.660156-6.355468 5.296875-13.625 1.449219-15.84375zm0 0" fill="#ce1126"/><path d="m630.011719 67.660156c-4.007813-2.804687-9.667969 2.179688-13.746094 8.007813-10.199219 14.5625-13.476563 23.117187-24.496094 46.601562 18.375-18.335937 25.347657-24.574219 35.417969-38.953125 4.203125-6.011718 6.464844-13.105468 2.824219-15.65625zm0 0" fill="#ce1126"/><path d="m645.695312 79.699219c-3.742187-3.148438-9.816406 1.328125-14.390624 6.777343-11.425782 13.621094-15.433594 21.855469-28.457032 44.289063 19.894532-16.660156 27.386719-22.269531 38.671875-35.71875 4.714844-5.613281 7.585938-12.492187 4.175781-15.347656zm0 0" fill="#ce1126"/><path d="m660.273438 93.054688c-3.453126-3.453126-9.894532.472656-14.921876 5.503906-12.570312 12.570312-17.285156 20.425781-32.21875 41.636718 21.28125-14.863281 29.234376-19.796874 41.644532-32.210937 5.183594-5.183594 8.644531-11.789063 5.496094-14.929687zm0 0" fill="#ce1126"/><path d="m673.640625 107.632812c-3.148437-3.742187-9.910156-.390624-15.355469 4.179688-13.617187 11.429688-19 18.839844-35.714844 38.675781 22.488282-12.957031 30.835938-17.175781 44.285157-28.460937 5.621093-4.714844 9.636719-10.988282 6.785156-14.394532zm0 0" fill="#ce1126"/><path d="m685.679688 123.324219c-2.808594-4.003907-9.839844-1.253907-15.660157 2.820312-14.5625 10.199219-20.574219 17.117188-38.953125 35.417969 23.535156-10.945312 32.21875-14.421875 46.597656-24.496094 6.011719-4.207031 10.558594-10.101562 8.015626-13.742187zm0 0" fill="#ce1126"/><path d="m696.300781 140c-2.449219-4.234375-9.683593-2.109375-15.84375 1.449219-15.394531 8.886719-21.980469 15.257812-41.894531 31.886719 24.398438-8.855469 33.355469-11.5625 48.5625-20.339844 6.347656-3.667969 11.394531-9.148438 9.175781-12.996094zm0 0" fill="#ce1126"/><path d="m705.429688 157.542969c-2.066407-4.433594-9.464844-2.945313-15.90625.058593-16.113282 7.515626-23.230469 13.285157-44.515626 28.113282 25.078126-6.695313 34.242188-8.609375 50.148438-16.027344 6.644531-3.101562 12.152344-8.121094 10.273438-12.144531zm0 0" fill="#ce1126"/><path d="m713 175.808594c-1.679688-4.597656-9.175781-3.753906-15.859375-1.324219-16.703125 6.082031-24.292969 11.207031-46.789063 24.125 25.566407-4.480469 34.855469-5.589844 51.351563-11.597656 6.890625-2.507813 12.816406-7.027344 11.296875-11.203125zm0 0" fill="#ce1126"/><path d="m718.945312 194.667969c-1.269531-4.722657-8.8125-4.542969-15.679687-2.703125-17.171875 4.601562-25.183594 9.050781-48.71875 19.960937 25.855469-2.242187 35.210937-2.535156 52.167969-7.082031 7.089844-1.898438 13.382812-5.886719 12.230468-10.175781zm0 0" fill="#ce1126"/><path d="m276.777344 213.976562c-.847656 4.8125 6.0625 7.832032 13.066406 9.070313 17.507812 3.085937 26.648438 2.441406 52.589844 2.5-24.382813-8.902344-32.980469-12.582031-50.273438-15.628906-7.222656-1.273438-14.609375-.320313-15.382812 4.058593zm0 0" fill="#ce1126"/><path d="m281.054688 194.667969c-1.265626 4.722656 5.359374 8.335937 12.230468 10.175781 17.167969 4.601562 26.332032 4.757812 52.167969 7.082031-23.511719-10.996093-31.761719-15.414062-48.71875-19.960937-7.085937-1.898438-14.527344-1.589844-15.679687 2.703125zm0 0" fill="#ce1126"/><path d="m287 175.808594c-1.667969 4.59375 4.613281 8.773437 11.296875 11.203125 16.703125 6.082031 25.820313 7.035156 51.351563 11.597656-22.460938-12.996094-30.296876-18.117187-46.789063-24.125-6.894531-2.507813-14.335937-2.855469-15.859375 1.324219zm0 0" fill="#ce1126"/><path d="m294.570312 157.542969c-2.066406 4.425781 3.828126 9.140625 10.273438 12.144531 16.113281 7.507812 25.109375 9.257812 50.148438 16.027344-21.246094-14.910156-28.601563-20.691406-44.515626-28.113282-6.644531-3.097656-14.03125-4.09375-15.90625-.058593zm0 0" fill="#ce1126"/><path d="m303.699219 140c-2.441407 4.234375 3.015625 9.441406 9.175781 12.996094 15.394531 8.890625 24.207031 11.40625 48.5625 20.339844-19.867188-16.707032-26.6875-23.109376-41.894531-31.886719-6.347657-3.667969-13.617188-5.300781-15.84375-1.449219zm0 0" fill="#ce1126"/><path d="m314.320312 123.324219c-2.796874 4.003906 2.1875 9.667969 8.015626 13.742187 14.5625 10.199219 23.117187 13.476563 46.597656 24.496094-18.332032-18.371094-24.570313-25.347656-38.953125-35.417969-6.003907-4.203125-13.109375-6.460937-15.660157-2.820312zm0 0" fill="#ce1126"/><path d="m326.359375 107.632812c-3.136719 3.75 1.335937 9.820313 6.785156 14.394532 13.617188 11.425781 21.851563 15.441406 44.285157 28.460937-16.660157-19.902343-22.269532-27.390625-35.714844-38.675781-5.621094-4.714844-12.492188-7.582031-15.355469-4.179688zm0 0" fill="#ce1126"/><path d="m339.726562 93.054688c-3.464843 3.457031.46875 9.902343 5.496094 14.929687 12.566406 12.574219 20.429688 17.28125 41.644532 32.210937-14.867188-21.277343-19.804688-29.226562-32.21875-41.636718-5.1875-5.1875-11.78125-8.644532-14.921876-5.503906zm0 0" fill="#ce1126"/><path d="m354.304688 79.699219c-3.746094 3.140625-.398438 9.902343 4.175781 15.347656 11.425781 13.617187 18.839843 19 38.671875 35.71875-12.949219-22.492187-17.175782-30.84375-28.457032-44.289063-4.714843-5.617187-10.992187-9.636718-14.390624-6.777343zm0 0" fill="#ce1126"/><path d="m369.988281 67.660156c-4.003906 2.804688-1.253906 9.832032 2.824219 15.65625 10.195312 14.5625 17.117188 20.566406 35.417969 38.953125-10.949219-23.535156-14.425781-32.21875-24.496094-46.601562-4.203125-6.007813-10.105469-10.558594-13.746094-8.007813zm0 0" fill="#ce1126"/><path d="m386.664062 57.035156c-4.230468 2.441406-2.105468 9.6875 1.449219 15.84375 8.890625 15.390625 15.261719 21.984375 31.882813 41.890625-8.847656-24.398437-11.554688-33.355469-20.332032-48.558593-3.667968-6.351563-9.148437-11.398438-13-9.175782zm0 0" fill="#ce1126"/><path d="m404.203125 47.90625c-4.425781 2.0625-2.9375 9.460938.066406 15.90625 7.515625 16.113281 13.28125 23.226562 28.109375 44.507812-6.691406-25.074218-8.605468-34.230468-16.027344-50.144531-3.097656-6.644531-8.117187-12.152343-12.148437-10.269531zm0 0" fill="#ce1126"/><path d="m422.476562 40.335938c-4.59375 1.671874-3.757812 9.171874-1.324218 15.855468 6.078125 16.703125 11.210937 24.300782 24.121094 46.792969-4.476563-25.566406-5.585938-34.859375-11.59375-51.355469-2.507813-6.890625-7.03125-12.8125-11.203126-11.292968zm0 0" fill="#ce1126"/><path d="m441.335938 34.390625c-4.726563 1.265625-4.542969 8.804687-2.703126 15.679687 4.601563 17.171876 9.050782 25.179688 19.957032 48.714844-2.238282-25.855468-2.535156-35.210937-7.074219-52.171875-1.898437-7.078125-5.886719-13.371093-10.179687-12.222656zm0 0" fill="#ce1126"/><path d="m460.640625 30.109375c-4.8125.847656-5.289063 8.378906-4.058594 15.382813 3.085938 17.507812 6.816407 25.878906 15.632813 50.269531.03125-25.953125.542968-35.296875-2.5-52.585938-1.273438-7.222656-4.699219-13.835937-9.074219-13.066406zm0 0" fill="#ce1126"/><path d="m480.246094 27.527344c-4.871094.429687-6.003906 7.890625-5.382813 14.976562 1.546875 17.707032 4.535157 26.367188 11.195313 51.4375 2.289062-25.855468 3.617187-35.113281 2.085937-52.605468-.640625-7.300782-3.472656-14.191407-7.898437-13.808594zm0 0" fill="#ce1126"/><path d="m0 205.554688h1000v16.667968h-1000zm0 0"/></g><g clip-path="url(#b)"><path d="m0 444.445312h1000v222.222657h-1000zm0 0" fill="#339e35" fill-rule="evenodd"/></g></svg>

<?xml version="1.0" encoding="UTF-8"?>
<svg xmlns="http://www.w3.org/2000/svg" xmlns:xlink="http://www.w3.org/1999/xlink" viewBox="0 0 1000 667" version="1.1">
<defs>
<clipPath id="clip1">
  <path d="M 0 0 L 1000 0 L 1000 666.71875 L 0 666.71875 Z M 0 0 "/>
</clipPath>
<clipPath id="clip2">
  <path d="M 0 444 L 1000 444 L 1000 666.71875 L 0 666.71875 Z M 0 444 "/>
</clipPath>
</defs>
<g id="surface730">
<g clip-path="url(#clip1)" clip-rule="nonzero">
<path style=" stroke:none;fill-rule:evenodd;fill:rgb(0%,0%,0%);fill-opacity:1;" d="M 0 666.667969 L 0 0 L 1000 0 L 1000 666.667969 Z M 0 666.667969 "/>
</g>
<path style=" stroke:none;fill-rule:evenodd;fill:rgb(80.783081%,6.666565%,14.901733%);fill-opacity:1;" d="M 643.332031 253.332031 C 643.332031 332.492188 579.160156 396.667969 500 396.667969 C 420.839844 396.667969 356.667969 332.492188 356.667969 253.332031 C 356.667969 174.167969 420.839844 110 500 110 C 579.160156 110 643.332031 174.167969 643.332031 253.332031 Z M 643.332031 253.332031 "/>
<path style=" stroke:none;fill-rule:evenodd;fill:rgb(80.783081%,6.666565%,14.901733%);fill-opacity:1;" d="M 0 222.222656 L 1000 222.222656 L 1000 444.445312 L 0 444.445312 Z M 0 222.222656 "/>
<path style=" stroke:none;fill-rule:evenodd;fill:rgb(80.783081%,6.666565%,14.901733%);fill-opacity:1;" d="M 500 26.664062 C 495.109375 26.664062 493.332031 34 493.332031 41.113281 C 493.332031 58.886719 495.558594 67.777344 500 93.332031 C 504.535156 67.777344 506.667969 58.664062 506.667969 41.113281 C 506.667969 33.777344 504.441406 26.664062 500 26.664062 Z M 500 26.664062 "/>
<path style=" stroke:none;fill-rule:evenodd;fill:rgb(80.783081%,6.666565%,14.901733%);fill-opacity:1;" d="M 519.753906 27.527344 C 514.886719 27.105469 512.472656 34.253906 511.855469 41.335938 C 510.308594 59.050781 511.746094 68.097656 513.941406 93.941406 C 520.6875 68.878906 523.605469 59.988281 525.136719 42.503906 C 525.777344 35.195312 524.179688 27.917969 519.753906 27.527344 Z M 519.753906 27.527344 "/>
<path style=" stroke:none;fill-rule:evenodd;fill:rgb(80.783081%,6.666565%,14.901733%);fill-opacity:1;" d="M 539.359375 30.109375 C 534.542969 29.257812 531.519531 36.175781 530.285156 43.175781 C 527.195312 60.6875 527.84375 69.824219 527.785156 95.761719 C 536.6875 71.382812 540.371094 62.78125 543.417969 45.492188 C 544.6875 38.269531 543.738281 30.878906 539.359375 30.109375 Z M 539.359375 30.109375 "/>
<path style=" stroke:none;fill-rule:evenodd;fill:rgb(80.783081%,6.666565%,14.901733%);fill-opacity:1;" d="M 558.664062 34.390625 C 553.945312 33.128906 550.324219 39.746094 548.484375 46.613281 C 543.886719 63.792969 543.734375 72.949219 541.410156 98.785156 C 552.402344 75.269531 556.824219 67.023438 561.367188 50.070312 C 563.265625 42.984375 562.960938 35.542969 558.664062 34.390625 Z M 558.664062 34.390625 "/>
<path style=" stroke:none;fill-rule:evenodd;fill:rgb(80.783081%,6.666565%,14.901733%);fill-opacity:1;" d="M 577.523438 40.335938 C 572.933594 38.667969 568.75 44.949219 566.320312 51.628906 C 560.238281 68.335938 559.289062 77.445312 554.726562 102.984375 C 567.726562 80.519531 572.847656 72.6875 578.847656 56.191406 C 581.359375 49.300781 581.699219 41.855469 577.523438 40.335938 Z M 577.523438 40.335938 "/>
<path style=" stroke:none;fill-rule:evenodd;fill:rgb(80.783081%,6.666565%,14.901733%);fill-opacity:1;" d="M 595.796875 47.90625 C 591.363281 45.839844 586.652344 51.730469 583.648438 58.175781 C 576.132812 74.289062 574.390625 83.285156 567.621094 108.320312 C 582.53125 87.078125 588.3125 79.726562 595.730469 63.8125 C 598.828125 57.167969 599.820312 49.785156 595.796875 47.90625 Z M 595.796875 47.90625 "/>
<path style=" stroke:none;fill-rule:evenodd;fill:rgb(80.783081%,6.666565%,14.901733%);fill-opacity:1;" d="M 613.335938 57.035156 C 609.097656 54.589844 603.894531 60.054688 600.335938 66.210938 C 591.449219 81.609375 588.925781 90.414062 580.003906 114.769531 C 596.703125 94.90625 603.109375 88.082031 611.886719 72.878906 C 615.546875 66.523438 617.183594 59.253906 613.335938 57.035156 Z M 613.335938 57.035156 "/>
<path style=" stroke:none;fill-rule:evenodd;fill:rgb(80.783081%,6.666565%,14.901733%);fill-opacity:1;" d="M 630.011719 67.660156 C 626.003906 64.855469 620.34375 69.839844 616.265625 75.667969 C 606.066406 90.230469 602.789062 98.785156 591.769531 122.269531 C 610.144531 103.933594 617.117188 97.695312 627.1875 83.316406 C 631.390625 77.304688 633.652344 70.210938 630.011719 67.660156 Z M 630.011719 67.660156 "/>
<path style=" stroke:none;fill-rule:evenodd;fill:rgb(80.783081%,6.666565%,14.901733%);fill-opacity:1;" d="M 645.695312 79.699219 C 641.953125 76.550781 635.878906 81.027344 631.304688 86.476562 C 619.878906 100.097656 615.871094 108.332031 602.847656 130.765625 C 622.742188 114.105469 630.234375 108.496094 641.519531 95.046875 C 646.234375 89.433594 649.105469 82.554688 645.695312 79.699219 Z M 645.695312 79.699219 "/>
<path style=" stroke:none;fill-rule:evenodd;fill:rgb(80.783081%,6.666565%,14.901733%);fill-opacity:1;" d="M 660.273438 93.054688 C 656.820312 89.601562 650.378906 93.527344 645.351562 98.558594 C 632.78125 111.128906 628.066406 118.984375 613.132812 140.195312 C 634.414062 125.332031 642.367188 120.398438 654.777344 107.984375 C 659.960938 102.800781 663.421875 96.195312 660.273438 93.054688 Z M 660.273438 93.054688 "/>
<path style=" stroke:none;fill-rule:evenodd;fill:rgb(80.783081%,6.666565%,14.901733%);fill-opacity:1;" d="M 673.640625 107.632812 C 670.492188 103.890625 663.730469 107.242188 658.285156 111.8125 C 644.667969 123.242188 639.285156 130.652344 622.570312 150.488281 C 645.058594 137.53125 653.40625 133.3125 666.855469 122.027344 C 672.476562 117.3125 676.492188 111.039062 673.640625 107.632812 Z M 673.640625 107.632812 "/>
<path style=" stroke:none;fill-rule:evenodd;fill:rgb(80.783081%,6.666565%,14.901733%);fill-opacity:1;" d="M 685.679688 123.324219 C 682.871094 119.320312 675.839844 122.070312 670.019531 126.144531 C 655.457031 136.34375 649.445312 143.261719 631.066406 161.5625 C 654.601562 150.617188 663.285156 147.140625 677.664062 137.066406 C 683.675781 132.859375 688.222656 126.964844 685.679688 123.324219 Z M 685.679688 123.324219 "/>
<path style=" stroke:none;fill-rule:evenodd;fill:rgb(80.783081%,6.666565%,14.901733%);fill-opacity:1;" d="M 696.300781 140 C 693.851562 135.765625 686.617188 137.890625 680.457031 141.449219 C 665.0625 150.335938 658.476562 156.707031 638.5625 173.335938 C 662.960938 164.480469 671.917969 161.773438 687.125 152.996094 C 693.472656 149.328125 698.519531 143.847656 696.300781 140 Z M 696.300781 140 "/>
<path style=" stroke:none;fill-rule:evenodd;fill:rgb(80.783081%,6.666565%,14.901733%);fill-opacity:1;" d="M 705.429688 157.542969 C 703.363281 153.109375 695.964844 154.597656 689.523438 157.601562 C 673.410156 165.117188 666.292969 170.886719 645.007812 185.714844 C 670.085938 179.019531 679.25 177.105469 695.15625 169.6875 C 701.800781 166.585938 707.308594 161.566406 705.429688 157.542969 Z M 705.429688 157.542969 "/>
<path style=" stroke:none;fill-rule:evenodd;fill:rgb(80.783081%,6.666565%,14.901733%);fill-opacity:1;" d="M 713 175.808594 C 711.320312 171.210938 703.824219 172.054688 697.140625 174.484375 C 680.4375 180.566406 672.847656 185.691406 650.351562 198.609375 C 675.917969 194.128906 685.207031 193.019531 701.703125 187.011719 C 708.59375 184.503906 714.519531 179.984375 713 175.808594 Z M 713 175.808594 "/>
<path style=" stroke:none;fill-rule:evenodd;fill:rgb(80.783081%,6.666565%,14.901733%);fill-opacity:1;" d="M 718.945312 194.667969 C 717.675781 189.945312 710.132812 190.125 703.265625 191.964844 C 686.09375 196.566406 678.082031 201.015625 654.546875 211.925781 C 680.402344 209.683594 689.757812 209.390625 706.714844 204.84375 C 713.804688 202.945312 720.097656 198.957031 718.945312 194.667969 Z M 718.945312 194.667969 "/>
<path style=" stroke:none;fill-rule:evenodd;fill:rgb(80.783081%,6.666565%,14.901733%);fill-opacity:1;" d="M 276.777344 213.976562 C 275.929688 218.789062 282.839844 221.808594 289.84375 223.046875 C 307.351562 226.132812 316.492188 225.488281 342.433594 225.546875 C 318.050781 216.644531 309.453125 212.964844 292.160156 209.917969 C 284.9375 208.644531 277.550781 209.597656 276.777344 213.976562 Z M 276.777344 213.976562 "/>
<path style=" stroke:none;fill-rule:evenodd;fill:rgb(80.783081%,6.666565%,14.901733%);fill-opacity:1;" d="M 281.054688 194.667969 C 279.789062 199.390625 286.414062 203.003906 293.285156 204.84375 C 310.453125 209.445312 319.617188 209.601562 345.453125 211.925781 C 321.941406 200.929688 313.691406 196.511719 296.734375 191.964844 C 289.648438 190.066406 282.207031 190.375 281.054688 194.667969 Z M 281.054688 194.667969 "/>
<path style=" stroke:none;fill-rule:evenodd;fill:rgb(80.783081%,6.666565%,14.901733%);fill-opacity:1;" d="M 287 175.808594 C 285.332031 180.402344 291.613281 184.582031 298.296875 187.011719 C 315 193.09375 324.117188 194.046875 349.648438 198.609375 C 327.1875 185.613281 319.351562 180.492188 302.859375 174.484375 C 295.964844 171.976562 288.523438 171.628906 287 175.808594 Z M 287 175.808594 "/>
<path style=" stroke:none;fill-rule:evenodd;fill:rgb(80.783081%,6.666565%,14.901733%);fill-opacity:1;" d="M 294.570312 157.542969 C 292.503906 161.96875 298.398438 166.683594 304.84375 169.6875 C 320.957031 177.195312 329.953125 178.945312 354.992188 185.714844 C 333.746094 170.804688 326.390625 165.023438 310.476562 157.601562 C 303.832031 154.503906 296.445312 153.507812 294.570312 157.542969 Z M 294.570312 157.542969 "/>
<path style=" stroke:none;fill-rule:evenodd;fill:rgb(80.783081%,6.666565%,14.901733%);fill-opacity:1;" d="M 303.699219 140 C 301.257812 144.234375 306.714844 149.441406 312.875 152.996094 C 328.269531 161.886719 337.082031 164.402344 361.4375 173.335938 C 341.570312 156.628906 334.75 150.226562 319.542969 141.449219 C 313.195312 137.78125 305.925781 136.148438 303.699219 140 Z M 303.699219 140 "/>
<path style=" stroke:none;fill-rule:evenodd;fill:rgb(80.783081%,6.666565%,14.901733%);fill-opacity:1;" d="M 314.320312 123.324219 C 311.523438 127.328125 316.507812 132.992188 322.335938 137.066406 C 336.898438 147.265625 345.453125 150.542969 368.933594 161.5625 C 350.601562 143.191406 344.363281 136.214844 329.980469 126.144531 C 323.976562 121.941406 316.871094 119.683594 314.320312 123.324219 Z M 314.320312 123.324219 "/>
<path style=" stroke:none;fill-rule:evenodd;fill:rgb(80.783081%,6.666565%,14.901733%);fill-opacity:1;" d="M 326.359375 107.632812 C 323.222656 111.382812 327.695312 117.453125 333.144531 122.027344 C 346.761719 133.453125 354.996094 137.46875 377.429688 150.488281 C 360.769531 130.585938 355.160156 123.097656 341.714844 111.8125 C 336.09375 107.097656 329.222656 104.230469 326.359375 107.632812 Z M 326.359375 107.632812 "/>
<path style=" stroke:none;fill-rule:evenodd;fill:rgb(80.783081%,6.666565%,14.901733%);fill-opacity:1;" d="M 339.726562 93.054688 C 336.261719 96.511719 340.195312 102.957031 345.222656 107.984375 C 357.789062 120.558594 365.652344 125.265625 386.867188 140.195312 C 372 118.917969 367.0625 110.96875 354.648438 98.558594 C 349.460938 93.371094 342.867188 89.914062 339.726562 93.054688 Z M 339.726562 93.054688 "/>
<path style=" stroke:none;fill-rule:evenodd;fill:rgb(80.783081%,6.666565%,14.901733%);fill-opacity:1;" d="M 354.304688 79.699219 C 350.558594 82.839844 353.90625 89.601562 358.480469 95.046875 C 369.90625 108.664062 377.320312 114.046875 397.152344 130.765625 C 384.203125 108.273438 379.976562 99.921875 368.695312 86.476562 C 363.980469 80.859375 357.703125 76.839844 354.304688 79.699219 Z M 354.304688 79.699219 "/>
<path style=" stroke:none;fill-rule:evenodd;fill:rgb(80.783081%,6.666565%,14.901733%);fill-opacity:1;" d="M 369.988281 67.660156 C 365.984375 70.464844 368.734375 77.492188 372.8125 83.316406 C 383.007812 97.878906 389.929688 103.882812 408.230469 122.269531 C 397.28125 98.734375 393.804688 90.050781 383.734375 75.667969 C 379.53125 69.660156 373.628906 65.109375 369.988281 67.660156 Z M 369.988281 67.660156 "/>
<path style=" stroke:none;fill-rule:evenodd;fill:rgb(80.783081%,6.666565%,14.901733%);fill-opacity:1;" d="M 386.664062 57.035156 C 382.433594 59.476562 384.558594 66.722656 388.113281 72.878906 C 397.003906 88.269531 403.375 94.863281 419.996094 114.769531 C 411.148438 90.371094 408.441406 81.414062 399.664062 66.210938 C 395.996094 59.859375 390.515625 54.8125 386.664062 57.035156 Z M 386.664062 57.035156 "/>
<path style=" stroke:none;fill-rule:evenodd;fill:rgb(80.783081%,6.666565%,14.901733%);fill-opacity:1;" d="M 404.203125 47.90625 C 399.777344 49.96875 401.265625 57.367188 404.269531 63.8125 C 411.785156 79.925781 417.550781 87.039062 432.378906 108.320312 C 425.6875 83.246094 423.773438 74.089844 416.351562 58.175781 C 413.253906 51.53125 408.234375 46.023438 404.203125 47.90625 Z M 404.203125 47.90625 "/>
<path style=" stroke:none;fill-rule:evenodd;fill:rgb(80.783081%,6.666565%,14.901733%);fill-opacity:1;" d="M 422.476562 40.335938 C 417.882812 42.007812 418.71875 49.507812 421.152344 56.191406 C 427.230469 72.894531 432.363281 80.492188 445.273438 102.984375 C 440.796875 77.417969 439.6875 68.125 433.679688 51.628906 C 431.171875 44.738281 426.648438 38.816406 422.476562 40.335938 Z M 422.476562 40.335938 "/>
<path style=" stroke:none;fill-rule:evenodd;fill:rgb(80.783081%,6.666565%,14.901733%);fill-opacity:1;" d="M 441.335938 34.390625 C 436.609375 35.65625 436.792969 43.195312 438.632812 50.070312 C 443.234375 67.242188 447.683594 75.25 458.589844 98.785156 C 456.351562 72.929688 456.054688 63.574219 451.515625 46.613281 C 449.617188 39.535156 445.628906 33.242188 441.335938 34.390625 Z M 441.335938 34.390625 "/>
<path style=" stroke:none;fill-rule:evenodd;fill:rgb(80.783081%,6.666565%,14.901733%);fill-opacity:1;" d="M 460.640625 30.109375 C 455.828125 30.957031 455.351562 38.488281 456.582031 45.492188 C 459.667969 63 463.398438 71.371094 472.214844 95.761719 C 472.246094 69.808594 472.757812 60.464844 469.714844 43.175781 C 468.441406 35.953125 465.015625 29.339844 460.640625 30.109375 Z M 460.640625 30.109375 "/>
<path style=" stroke:none;fill-rule:evenodd;fill:rgb(80.783081%,6.666565%,14.901733%);fill-opacity:1;" d="M 480.246094 27.527344 C 475.375 27.957031 474.242188 35.417969 474.863281 42.503906 C 476.410156 60.210938 479.398438 68.871094 486.058594 93.941406 C 488.347656 68.085938 489.675781 58.828125 488.144531 41.335938 C 487.503906 34.035156 484.671875 27.144531 480.246094 27.527344 Z M 480.246094 27.527344 "/>
<path style=" stroke:none;fill-rule:evenodd;fill:rgb(0%,0%,0%);fill-opacity:1;" d="M 0 205.554688 L 1000 205.554688 L 1000 222.222656 L 0 222.222656 Z M 0 205.554688 "/>
<g clip-path="url(#clip2)" clip-rule="nonzero">
<path style=" stroke:none;fill-rule:evenodd;fill:rgb(19.999695%,61.959839%,20.783997%);fill-opacity:1;" d="M 0 444.445312 L 1000 444.445312 L 1000 666.667969 L 0 666.667969 Z M 0 444.445312 "/>
</g>
</g>
</svg>
